assets/img/LOGOS/WHITE_LOGO/logo.svg

<svg width="368" height="381" fill="none" xmlns="http://www.w3.org/2000/svg"><path d="M366 190.5C366 294.606 284.517 379 184 379S2 294.606 2 190.5 83.483 2 184 2s182 84.394 182 188.5z" fill="#fff" stroke="#C8B268" stroke-width="3" stroke-miterlimit="10"/><path d="M91.486 144.735l-7.153-50.632s-1.364-5.036 2.557-4.34c3.922.692 56.938 8.337 56.938 8.337s4.806.52 4.536 4.516c-.274 3.995-1.636 36.825-22.604 42.904-8.526 2.431-16.538-4.691-16.879-8.513-.34-3.82 33.925-9.205 45.688 23.451 10.399 32.829 11.251 47.94 11.251 47.94s.853 2.606-2.046 2.432c-2.898-.174-14.66-8.337 1.535-13.2l9.545-.347s8.355-.174 8.355 6.078c0 6.253-4.603 7.469-7.16 7.295-2.557-.172-1.535-3.187-1.535-3.187s2.898-73.588 1.875-76.367c.171-3.648 1.365-4.864 4.433-4.69 3.58.174 38.016 3.822 38.868 4.516.852.695 4.603.348 3.24 4.864-1.365 4.517-10.57 29.876-36.996 17.892-4.089-2.086 5.458-6.08 7.331-6.254 2.388-.521 13.64-3.127 26.936 2.78 13.297 5.904 10.911 5.21 10.911 5.21s3.068 1.217 3.921-4.516c.852-5.732 4.944-33.003 4.603-35.955-.342-2.954 1.364-3.648-4.943-5.906-6.308-2.258-105.865-40.995-120.868-49.852-3.409-1.39-7.16-2.432-7.16.868s1.471 33.047 1.471 33.047M92.065 148.83l-.579-4.096" stroke="#C7B169" stroke-width="2.667" stroke-miterlimit="10" stroke-linecap="round" stroke-linejoin="round"/><path d="M92.857 210.353l-2.492 113.578s-.74 3.441-2.112 1.194c-1.028-1.686 1.194-22.754 24.208-27.793 23.015-5.036 46.37-5.861 58.474 8.861 13.466 16.153 9.034 17.543 7.672 16.499-1.366-1.04-31.198-34.305-34.267-38.385-1.888-2.513-7.841-20.671 11.423-19.108-5.456-4.517-28.128-9.033-46.542-30.225-18.41-21.191-34.434-64.268-34.434-64.268s-1.194-1.911 1.193-2.258c2.387-.348 39.379-6.949 50.46-5.559 10.399 1.912 21.82 27.618 9.547 43.425-4.603 5.733-28.811 9.033-30.856 2.78-1.686-5.152-8.052-33.212-10.306-43.213m-2.855-16.05c2.702-5.754 7.927-11.429 17.883-14.031m-20.484 30.478s-1.221-8.303 2.601-16.445" stroke="#C7B169" stroke-width="2.667" stroke-miterlimit="10" stroke-linecap="round" stroke-linejoin="round"/><path d="M153.884 263.967c2.421 1.329 3.863 1.793 6.408 2.089 6.393.748 12.188-6.336 12.188-12.891 0-6.558-5.163-12.394-11.597-12.394" stroke="#C7B169" stroke-width="2.667" stroke-miterlimit="10" stroke-linecap="round" stroke-linejoin="round"/><path d="M143.68 225.269s8.054-6.382 8.374-6.773c.32-.39 1.279-1.434 3.07 0 1.789 1.431 6.584 6.186 13.678.391 1.792-1.124 2.303-.978 2.878-.391.576.585 9.718 8.011 9.718 8.011s2.3 1.172.831 4.298c-1.471 3.128-20.969 20.845-39.892 0-2.621-2.997 1.343-5.536 1.343-5.536zm-1.822 2.638l40.435.228" stroke="#C7B169" stroke-width="2.667" stroke-miterlimit="10" stroke-linecap="round" stroke-linejoin="round"/><path d="M227.996 211.349v-14.08l-.129.874-4.769 13.206h-.974l-4.813-13.206-.115-.874v14.08h-1.847V190.81h.959l6.231 16.843.057.759.058-.759 6.216-16.843h.974v20.539h-1.848zm6.546 0V190.81h1.847v20.539h-1.847zm6.259 0V190.81h1.847v18.777h7.864v1.762h-9.711zm22.358 0v-9.382h-7.864v9.382h-1.847V190.81h1.847v9.395h7.864v-9.395h1.847v20.539h-1.847zm6.56 0V190.81h11.558v1.761h-9.711v7.634h7.864v1.762h-7.864v7.62h9.711v1.762h-11.558zm22.802-4.784h-6.503l-1.346 4.784h-1.92l6.016-20.539h.974l6.044 20.539h-1.905l-1.36-4.784zm-6.002-1.762h5.515l-2.707-9.467-.058-.759-.057.759-2.693 9.467zm23.161 1.79a4.85 4.85 0 01-.401 1.963 4.976 4.976 0 01-1.075 1.604 5.178 5.178 0 01-1.604 1.088 4.991 4.991 0 01-1.962.387h-1.461a5.101 5.101 0 01-1.977-.387 5.19 5.19 0 01-1.604-1.088 5.178 5.178 0 01-1.088-1.604 4.996 4.996 0 01-.387-1.963V190.81h1.848v15.783c0 .459.086.888.257 1.29.172.391.406.74.702 1.045.306.296.654.53 1.046.702.401.172.831.258 1.289.258h1.289c.458 0 .883-.086 1.275-.258a3.301 3.301 0 001.045-.702 3.53 3.53 0 00.702-1.045c.172-.402.258-.831.258-1.29V190.81h1.848v15.783zm-82.773 28.822a4.83 4.83 0 01-.401 1.962 4.957 4.957 0 01-1.074 1.604 5.123 5.123 0 01-1.618 1.089 4.996 4.996 0 01-1.963.387h-4.655v7.892h-1.847V227.81h6.502c.697 0 1.352.133 1.963.401.62.257 1.16.616 1.618 1.074.459.458.817.998 1.074 1.618.268.611.401 1.266.401 1.963v2.549zm-1.847-2.549c0-.459-.086-.884-.258-1.275a3.2 3.2 0 00-.716-1.046 3.2 3.2 0 00-1.046-.716 3.13 3.13 0 00-1.274-.258h-4.57v9.124h4.57a3.13 3.13 0 001.274-.258c.401-.172.75-.406 1.046-.702.305-.296.544-.639.716-1.031.172-.401.258-.831.258-1.289v-2.549zm15.039 15.483l-5.572-8.766h-2.535v8.766h-1.848V227.81h6.517c.697 0 1.351.133 1.963.401a4.984 4.984 0 011.604 1.074c.458.458.816.998 1.074 1.618a4.85 4.85 0 01.401 1.963v1.661c0 .697-.134 1.356-.401 1.977a5 5 0 01-1.074 1.604 5.19 5.19 0 01-1.604 1.088 5 5 0 01-1.963.387l5.572 8.766h-2.134zm-.244-15.483c0-.459-.086-.884-.257-1.275a3.306 3.306 0 00-.702-1.046 3.2 3.2 0 00-1.046-.716 3.131 3.131 0 00-1.275-.258h-4.583v8.25h4.583c.459 0 .884-.086 1.275-.258.401-.171.75-.405 1.046-.701.296-.306.53-.654.702-1.046.171-.401.257-.831.257-1.289v-1.661zm5.916 15.483V227.81h1.847v20.539h-1.847zm6.56 0V227.81h11.558v1.761h-9.711v7.634h7.864v1.762h-7.864v7.62h9.711v1.762h-11.558zm26.354-4.756a4.85 4.85 0 01-.401 1.963 4.99 4.99 0 01-1.074 1.604 5.195 5.195 0 01-1.605 1.088 4.991 4.991 0 01-1.962.387h-1.461a5.093 5.093 0 01-1.976-.387 5.183 5.183 0 01-1.605-1.088 5.178 5.178 0 01-1.088-1.604 4.996 4.996 0 01-.387-1.963V227.81h1.848v15.783c0 .459.086.888.258 1.29.172.391.405.74.701 1.045.306.296.655.53 1.046.702.401.172.831.258 1.289.258h1.289c.459 0 .883-.086 1.275-.258a3.301 3.301 0 001.045-.702 3.53 3.53 0 00.702-1.045c.172-.402.258-.831.258-1.29V227.81h1.848v15.783zm14.065 4.756l-5.572-8.766h-2.535v8.766h-1.848V227.81h6.517c.697 0 1.352.133 1.963.401a4.984 4.984 0 011.604 1.074c.458.458.816.998 1.074 1.618a4.85 4.85 0 01.401 1.963v1.661c0 .697-.134 1.356-.401 1.977a5 5 0 01-1.074 1.604 5.19 5.19 0 01-1.604 1.088 4.996 4.996 0 01-1.963.387l5.572 8.766h-2.134zm-.244-15.483c0-.459-.086-.884-.257-1.275a3.306 3.306 0 00-.702-1.046 3.2 3.2 0 00-1.046-.716 3.131 3.131 0 00-1.275-.258h-4.583v8.25h4.583c.459 0 .884-.086 1.275-.258.401-.171.75-.405 1.046-.701.296-.306.53-.654.702-1.046.171-.401.257-.831.257-1.289v-1.661zm-64.51 52.483v-14.08l-.129.874-4.769 13.206h-.974l-4.813-13.206-.115-.874v14.08h-1.847V264.81h.959l6.231 16.843.057.759.058-.759 6.216-16.843h.974v20.539h-1.848zm14.251-4.784h-6.502l-1.347 4.784h-1.919l6.016-20.539h.974l6.044 20.539h-1.905l-1.361-4.784zm-6.001-1.762h5.514l-2.707-9.467-.057-.759-.057.759-2.693 9.467zm23.16 6.546h-.587l-1.074-1.647a5.154 5.154 0 01-1.633 1.417 4.434 4.434 0 01-2.134.516h-1.074a5.098 5.098 0 01-1.977-.387 5.178 5.178 0 01-1.604-1.088 5.181 5.181 0 01-1.089-1.604 4.996 4.996 0 01-.386-1.963v-11.028c0-.697.128-1.351.386-1.962a5.186 5.186 0 011.089-1.605 4.99 4.99 0 011.604-1.074 4.949 4.949 0 011.977-.401h1.46c.698 0 1.352.134 1.963.401a4.99 4.99 0 011.604 1.074c.458.459.816.993 1.074 1.605.267.611.401 1.265.401 1.962v.831l-1.848.286v-1.117c0-.459-.085-.883-.257-1.275a3.306 3.306 0 00-.702-1.046 3.303 3.303 0 00-1.046-.701 3.13 3.13 0 00-1.274-.258h-1.29c-.458 0-.888.086-1.289.258-.391.172-.74.405-1.045.701-.296.296-.53.645-.702 1.046a3.135 3.135 0 00-.258 1.275v11.028c0 .459.086.888.258 1.29.172.391.406.74.702 1.045.305.296.654.53 1.045.702.401.172.831.258 1.289.258h1.29a3.13 3.13 0 001.274-.258c.401-.172.75-.406 1.046-.702a3.53 3.53 0 00.702-1.045 3.24 3.24 0 00.257-1.29v-4.282h-3.279v-1.762h5.127v10.8zm12.117-4.784h-6.502l-1.347 4.784h-1.919l6.016-20.539h.974l6.044 20.539h-1.905l-1.361-4.784zm-6.001-1.762h5.514l-2.707-9.467-.057-.759-.057.759-2.693 9.467zm11.602 6.546V264.81h1.847v18.777h7.864v1.762h-9.711zm12.346 0V264.81h1.848v18.777h7.863v1.762h-9.711zm23.905-4.756a4.85 4.85 0 01-.401 1.963 4.99 4.99 0 01-1.074 1.604 5.183 5.183 0 01-1.605 1.088 4.991 4.991 0 01-1.962.387h-1.461a5.093 5.093 0 01-1.976-.387 5.164 5.164 0 01-2.693-2.692 4.996 4.996 0 01-.387-1.963v-11.028c0-.697.129-1.351.387-1.962a5.168 5.168 0 011.089-1.605 4.99 4.99 0 011.604-1.074 4.944 4.944 0 011.976-.401h1.461c.697 0 1.351.134 1.962.401a4.994 4.994 0 011.605 1.074c.458.459.816.993 1.074 1.605.267.611.401 1.265.401 1.962v11.028zm-1.848-11.028c0-.459-.086-.883-.258-1.275a3.287 3.287 0 00-.701-1.046 3.303 3.303 0 00-1.046-.701 3.131 3.131 0 00-1.275-.258h-1.289c-.458 0-.888.086-1.289.258-.391.172-.74.405-1.045.701-.296.296-.53.645-.702 1.046a3.135 3.135 0 00-.258 1.275v11.028c0 .459.086.888.258 1.29.172.391.406.74.702 1.045.305.296.654.53 1.045.702.401.172.831.258 1.289.258h1.289c.459 0 .884-.086 1.275-.258.401-.172.75-.406 1.046-.702.296-.305.53-.654.701-1.045.172-.402.258-.831.258-1.29v-11.028z" fill="#C8B369"/></svg>

<svg width="368" height="381" viewBox="0 0 368 381" fill="none" xmlns="http://www.w3.org/2000/svg">
<g id="g10">
<g id="g12">
<g id="g14">
<g id="g20">
<path id="path22" d="M366 190.5C366 294.606 284.517 379 184 379C83.4834 379 2 294.606 2 190.5C2 86.3942 83.4834 2.00002 184 2.00002C284.517 2.00002 366 86.3942 366 190.5Z" fill="white" stroke="#C8B268" stroke-width="3" stroke-miterlimit="10"/>
</g>
</g>
</g>
<g id="g24">
<g id="g26">
<g id="g32">
<path id="path34" d="M91.4863 144.735L84.333 94.1028C84.333 94.1028 82.969 89.0666 86.8903 89.7622C90.8116 90.4551 143.828 98.0997 143.828 98.0997C143.828 98.0997 148.634 98.62 148.364 102.616C148.09 106.611 146.728 139.441 125.76 145.52C117.234 147.951 109.222 140.829 108.881 137.007C108.541 133.187 142.806 127.802 154.569 160.458C164.968 193.287 165.82 208.398 165.82 208.398C165.82 208.398 166.673 211.004 163.774 210.83C160.876 210.656 149.114 202.493 165.309 197.63L174.854 197.283C174.854 197.283 183.209 197.109 183.209 203.361C183.209 209.614 178.606 210.83 176.049 210.656C173.492 210.484 174.514 207.469 174.514 207.469C174.514 207.469 177.412 133.881 176.389 131.102C176.56 127.454 177.754 126.238 180.822 126.412C184.402 126.586 218.838 130.234 219.69 130.928C220.542 131.623 224.293 131.276 222.93 135.792C221.565 140.309 212.36 165.668 185.934 153.684C181.845 151.598 191.392 147.604 193.265 147.43C195.653 146.909 206.905 144.303 220.201 150.21C233.498 156.114 231.112 155.42 231.112 155.42C231.112 155.42 234.18 156.637 235.033 150.904C235.885 145.172 239.977 117.901 239.636 114.949C239.294 111.995 241 111.301 234.693 109.043C228.385 106.785 128.828 68.0484 113.825 59.1906C110.416 57.8008 106.665 56.7588 106.665 60.0587C106.665 63.3586 108.136 93.1056 108.136 93.1056" stroke="#C7B169" stroke-width="2.66667" stroke-miterlimit="10" stroke-linecap="round" stroke-linejoin="round"/>
</g>
<g id="g36">
<path id="path38" d="M92.0649 148.83L91.4862 144.734" stroke="#C7B169" stroke-width="2.66667" stroke-miterlimit="10" stroke-linecap="round" stroke-linejoin="round"/>
</g>
<g id="g40">
<path id="path42" d="M92.8573 210.353L90.3653 323.931C90.3653 323.931 89.6253 327.372 88.2533 325.125C87.2253 323.439 89.4466 302.371 112.461 297.332C135.476 292.296 158.831 291.471 170.935 306.193C184.401 322.346 179.969 323.736 178.607 322.692C177.241 321.652 147.409 288.387 144.34 284.307C142.452 281.794 136.499 263.636 155.763 265.199C150.307 260.682 127.635 256.166 109.221 234.974C90.8106 213.783 74.7866 170.706 74.7866 170.706C74.7866 170.706 73.5933 168.795 75.9799 168.448C78.3666 168.1 115.359 161.499 126.44 162.889C136.839 164.801 148.26 190.507 135.987 206.314C131.384 212.047 107.176 215.347 105.131 209.094C103.445 203.942 97.0786 175.882 94.8253 165.881" stroke="#C7B169" stroke-width="2.66667" stroke-miterlimit="10" stroke-linecap="round" stroke-linejoin="round"/>
</g>
<g id="g44">
<path id="path46" d="M91.9705 149.831C94.6718 144.077 99.8971 138.402 109.853 135.8" stroke="#C7B169" stroke-width="2.66667" stroke-miterlimit="10" stroke-linecap="round" stroke-linejoin="round"/>
</g>
<g id="g48">
<path id="path50" d="M89.369 166.278C89.369 166.278 88.1477 157.975 91.9703 149.833" stroke="#C7B169" stroke-width="2.66667" stroke-miterlimit="10" stroke-linecap="round" stroke-linejoin="round"/>
</g>
<g id="g52">
<path id="path54" d="M153.884 263.967C156.305 265.296 157.747 265.76 160.292 266.056C166.685 266.804 172.48 259.72 172.48 253.165C172.48 246.607 167.317 240.771 160.883 240.771" stroke="#C7B169" stroke-width="2.66667" stroke-miterlimit="10" stroke-linecap="round" stroke-linejoin="round"/>
</g>
<g id="g56">
<path id="path58" d="M143.68 225.269C143.68 225.269 151.734 218.887 152.054 218.496C152.374 218.106 153.333 217.062 155.124 218.496C156.913 219.927 161.708 224.682 168.802 218.887C170.594 217.763 171.105 217.909 171.68 218.496C172.256 219.081 181.398 226.507 181.398 226.507C181.398 226.507 183.698 227.679 182.229 230.805C180.758 233.933 161.26 251.65 142.337 230.805C139.716 227.808 143.68 225.269 143.68 225.269Z" stroke="#C7B169" stroke-width="2.66667" stroke-miterlimit="10" stroke-linecap="round" stroke-linejoin="round"/>
</g>
<g id="g60">
<path id="path62" d="M141.858 227.907L182.293 228.135" stroke="#C7B169" stroke-width="2.66667" stroke-miterlimit="10" stroke-linecap="round" stroke-linejoin="round"/>
</g>
</g>
</g>
<path id="MILHEAU PRIEUR MAGALLO" d="M227.996 211.349V197.269L227.867 198.143L223.098 211.349H222.124L217.311 198.143L217.196 197.269V211.349H215.349V190.81H216.308L222.539 207.653L222.596 208.412L222.654 207.653L228.87 190.81H229.844V211.349H227.996ZM234.542 211.349V190.81H236.389V211.349H234.542ZM240.801 211.349V190.81H242.648V209.587H250.512V211.349H240.801ZM263.159 211.349V201.967H255.295V211.349H253.448V190.81H255.295V200.205H263.159V190.81H265.006V211.349H263.159ZM269.719 211.349V190.81H281.277V192.571H271.566V200.205H279.43V201.967H271.566V209.587H281.277V211.349H269.719ZM292.521 206.565H286.018L284.672 211.349H282.752L288.768 190.81H289.742L295.786 211.349H293.881L292.521 206.565ZM286.519 204.803H292.034L289.327 195.336L289.269 194.577L289.212 195.336L286.519 204.803ZM309.68 206.593C309.68 207.29 309.546 207.945 309.279 208.556C309.021 209.167 308.663 209.702 308.204 210.16C307.746 210.618 307.211 210.981 306.6 211.248C305.989 211.506 305.335 211.635 304.638 211.635H303.177C302.48 211.635 301.821 211.506 301.2 211.248C300.589 210.981 300.055 210.618 299.596 210.16C299.138 209.702 298.775 209.167 298.508 208.556C298.25 207.945 298.121 207.29 298.121 206.593V190.81H299.969V206.593C299.969 207.052 300.055 207.481 300.226 207.883C300.398 208.274 300.632 208.623 300.928 208.928C301.234 209.224 301.582 209.458 301.974 209.63C302.375 209.802 302.805 209.888 303.263 209.888H304.552C305.01 209.888 305.435 209.802 305.827 209.63C306.228 209.458 306.576 209.224 306.872 208.928C307.168 208.623 307.402 208.274 307.574 207.883C307.746 207.481 307.832 207.052 307.832 206.593V190.81H309.68V206.593ZM226.907 235.415C226.907 236.112 226.774 236.766 226.506 237.377C226.249 237.988 225.891 238.523 225.432 238.981C224.974 239.44 224.434 239.803 223.814 240.07C223.203 240.328 222.548 240.457 221.851 240.457H217.196V248.349H215.349V227.81H221.851C222.548 227.81 223.203 227.943 223.814 228.211C224.434 228.468 224.974 228.827 225.432 229.285C225.891 229.743 226.249 230.283 226.506 230.903C226.774 231.514 226.907 232.169 226.907 232.866V235.415ZM225.06 232.866C225.06 232.407 224.974 231.982 224.802 231.591C224.63 231.19 224.391 230.841 224.086 230.545C223.79 230.24 223.441 230.001 223.04 229.829C222.649 229.657 222.224 229.571 221.766 229.571H217.196V238.695H221.766C222.224 238.695 222.649 238.609 223.04 238.437C223.441 238.265 223.79 238.031 224.086 237.735C224.391 237.439 224.63 237.096 224.802 236.704C224.974 236.303 225.06 235.873 225.06 235.415V232.866ZM240.099 248.349L234.527 239.583H231.992V248.349H230.144V227.81H236.661C237.358 227.81 238.012 227.943 238.624 228.211C239.235 228.468 239.769 228.827 240.228 229.285C240.686 229.743 241.044 230.283 241.302 230.903C241.569 231.514 241.703 232.169 241.703 232.866V234.527C241.703 235.224 241.569 235.883 241.302 236.504C241.044 237.115 240.686 237.649 240.228 238.108C239.769 238.566 239.235 238.929 238.624 239.196C238.012 239.454 237.358 239.583 236.661 239.583L242.233 248.349H240.099ZM239.855 232.866C239.855 232.407 239.769 231.982 239.598 231.591C239.426 231.19 239.192 230.841 238.896 230.545C238.6 230.24 238.251 230.001 237.85 229.829C237.459 229.657 237.034 229.571 236.575 229.571H231.992V237.821H236.575C237.034 237.821 237.459 237.735 237.85 237.563C238.251 237.392 238.6 237.158 238.896 236.862C239.192 236.556 239.426 236.208 239.598 235.816C239.769 235.415 239.855 234.985 239.855 234.527V232.866ZM245.771 248.349V227.81H247.618V248.349H245.771ZM252.331 248.349V227.81H263.889V229.571H254.178V237.205H262.042V238.967H254.178V246.587H263.889V248.349H252.331ZM278.685 243.593C278.685 244.29 278.551 244.945 278.284 245.556C278.026 246.167 277.668 246.702 277.21 247.16C276.751 247.618 276.216 247.981 275.605 248.248C274.994 248.506 274.34 248.635 273.643 248.635H272.182C271.485 248.635 270.826 248.506 270.206 248.248C269.594 247.981 269.06 247.618 268.601 247.16C268.143 246.702 267.78 246.167 267.513 245.556C267.255 244.945 267.126 244.29 267.126 243.593V227.81H268.974V243.593C268.974 244.052 269.06 244.481 269.232 244.883C269.404 245.274 269.637 245.623 269.933 245.928C270.239 246.224 270.588 246.458 270.979 246.63C271.38 246.802 271.81 246.888 272.268 246.888H273.557C274.016 246.888 274.44 246.802 274.832 246.63C275.233 246.458 275.581 246.224 275.877 245.928C276.173 245.623 276.407 245.274 276.579 244.883C276.751 244.481 276.837 244.052 276.837 243.593V227.81H278.685V243.593ZM292.75 248.349L287.178 239.583H284.643V248.349H282.795V227.81H289.312C290.009 227.81 290.664 227.943 291.275 228.211C291.886 228.468 292.42 228.827 292.879 229.285C293.337 229.743 293.695 230.283 293.953 230.903C294.22 231.514 294.354 232.169 294.354 232.866V234.527C294.354 235.224 294.22 235.883 293.953 236.504C293.695 237.115 293.337 237.649 292.879 238.108C292.42 238.566 291.886 238.929 291.275 239.196C290.664 239.454 290.009 239.583 289.312 239.583L294.884 248.349H292.75ZM292.506 232.866C292.506 232.407 292.42 231.982 292.249 231.591C292.077 231.19 291.843 230.841 291.547 230.545C291.251 230.24 290.902 230.001 290.501 229.829C290.11 229.657 289.685 229.571 289.226 229.571H284.643V237.821H289.226C289.685 237.821 290.11 237.735 290.501 237.563C290.902 237.392 291.251 237.158 291.547 236.862C291.843 236.556 292.077 236.208 292.249 235.816C292.42 235.415 292.506 234.985 292.506 234.527V232.866ZM227.996 285.349V271.269L227.867 272.143L223.098 285.349H222.124L217.311 272.143L217.196 271.269V285.349H215.349V264.81H216.308L222.539 281.653L222.596 282.412L222.654 281.653L228.87 264.81H229.844V285.349H227.996ZM242.247 280.565H235.745L234.398 285.349H232.479L238.495 264.81H239.469L245.513 285.349H243.608L242.247 280.565ZM236.246 278.803H241.76L239.053 269.336L238.996 268.577L238.939 269.336L236.246 278.803ZM259.406 285.349H258.819L257.745 283.702C257.296 284.294 256.752 284.766 256.112 285.119C255.472 285.463 254.761 285.635 253.978 285.635H252.904C252.206 285.635 251.548 285.506 250.927 285.248C250.316 284.981 249.781 284.618 249.323 284.16C248.864 283.702 248.502 283.167 248.234 282.556C247.976 281.945 247.848 281.29 247.848 280.593V269.565C247.848 268.868 247.976 268.214 248.234 267.603C248.502 266.991 248.864 266.457 249.323 265.998C249.781 265.54 250.316 265.182 250.927 264.924C251.548 264.657 252.206 264.523 252.904 264.523H254.364C255.062 264.523 255.716 264.657 256.327 264.924C256.938 265.182 257.473 265.54 257.931 265.998C258.389 266.457 258.747 266.991 259.005 267.603C259.272 268.214 259.406 268.868 259.406 269.565V270.396L257.558 270.682V269.565C257.558 269.106 257.473 268.682 257.301 268.29C257.129 267.889 256.895 267.54 256.599 267.244C256.303 266.948 255.954 266.715 255.553 266.543C255.162 266.371 254.737 266.285 254.279 266.285H252.989C252.531 266.285 252.101 266.371 251.7 266.543C251.309 266.715 250.96 266.948 250.655 267.244C250.359 267.54 250.125 267.889 249.953 268.29C249.781 268.682 249.695 269.106 249.695 269.565V280.593C249.695 281.052 249.781 281.481 249.953 281.883C250.125 282.274 250.359 282.623 250.655 282.928C250.96 283.224 251.309 283.458 251.7 283.63C252.101 283.802 252.531 283.888 252.989 283.888H254.279C254.737 283.888 255.162 283.802 255.553 283.63C255.954 283.458 256.303 283.224 256.599 282.928C256.895 282.623 257.129 282.274 257.301 281.883C257.473 281.481 257.558 281.052 257.558 280.593V276.311H254.279V274.549H259.406V285.349ZM271.523 280.565H265.021L263.674 285.349H261.755L267.771 264.81H268.745L274.789 285.349H272.884L271.523 280.565ZM265.522 278.803H271.036L268.329 269.336L268.272 268.577L268.215 269.336L265.522 278.803ZM277.124 285.349V264.81H278.971V283.587H286.835V285.349H277.124ZM289.47 285.349V264.81H291.318V283.587H299.181V285.349H289.47ZM313.375 280.593C313.375 281.29 313.241 281.945 312.974 282.556C312.716 283.167 312.358 283.702 311.9 284.16C311.441 284.618 310.907 284.981 310.295 285.248C309.684 285.506 309.03 285.635 308.333 285.635H306.872C306.175 285.635 305.516 285.506 304.896 285.248C304.285 284.981 303.75 284.618 303.292 284.16C302.833 283.702 302.47 283.167 302.203 282.556C301.945 281.945 301.816 281.29 301.816 280.593V269.565C301.816 268.868 301.945 268.214 302.203 267.603C302.47 266.991 302.833 266.457 303.292 265.998C303.75 265.54 304.285 265.182 304.896 264.924C305.516 264.657 306.175 264.523 306.872 264.523H308.333C309.03 264.523 309.684 264.657 310.295 264.924C310.907 265.182 311.441 265.54 311.9 265.998C312.358 266.457 312.716 266.991 312.974 267.603C313.241 268.214 313.375 268.868 313.375 269.565V280.593ZM311.527 269.565C311.527 269.106 311.441 268.682 311.269 268.29C311.098 267.889 310.864 267.54 310.568 267.244C310.272 266.948 309.923 266.715 309.522 266.543C309.131 266.371 308.706 266.285 308.247 266.285H306.958C306.5 266.285 306.07 266.371 305.669 266.543C305.278 266.715 304.929 266.948 304.624 267.244C304.328 267.54 304.094 267.889 303.922 268.29C303.75 268.682 303.664 269.106 303.664 269.565V280.593C303.664 281.052 303.75 281.481 303.922 281.883C304.094 282.274 304.328 282.623 304.624 282.928C304.929 283.224 305.278 283.458 305.669 283.63C306.07 283.802 306.5 283.888 306.958 283.888H308.247C308.706 283.888 309.131 283.802 309.522 283.63C309.923 283.458 310.272 283.224 310.568 282.928C310.864 282.623 311.098 282.274 311.269 281.883C311.441 281.481 311.527 281.052 311.527 280.593V269.565Z" fill="#C8B369"/>
</g>
</svg>
